X:47
T:The Old Maid of Galway
C:Liz Carroll
R:reel
Z:Transcribed by Lionel Gueganton
L:1/8
M:4/4
K:Gdor
|: GD D/D/D GD FD | CD B,C DF FD  | G3G2D FD    | CD B,C DD BA 
|  GD D/D/D G2 FD |  CD B,C DF FD | G3F BG FD   |1 C2 DF GG, G,B :|2 C2 DF GG, GA
|: B2 AB G3A      | BG AF Gc cc   | B2 AB G2 FD | C2 B,C DG, G,A
| B2 AB G3A       | BG AF Gc cc   | cd cB G2 FD |1 C2 B,C DG, G,A :|2 C2 B,C DG, BA |

